X: 1
T: Arizona
M: 4/4
L: 1/8
R: reel
K: Gmaj
B,CDE DCB,C | DGGF GDB,D | C3D CB,A,B, | CAAB A2GA |
ABBc BAGF | EDB,D A,B,G,B, | C2CD CA,B,C |1 DGGF G2B,2 :|2 DGGF ~G2GA |
|: BGAG ABBA | BdBA GFED | ~E2B,G EDB,G, | A,B,DE DEGA |
BGAG ABBA | BdBA GFED  | C3D EFGE |1 FGAF GABc :|2 FGAF GDB,D ||
